!!!COM: Fe/licien David
!!!CNT: Francais
!!!TXO: Francais
!!!OTL: La Vengeance des Fleurs
!!!LYR: M. Fonteille
!!!ENC: Jacob Pegg
!!!YOR: Romantic French Song 1830-1870, David Tunley, ed., New York: Garland Publishing, Inc., 1995
!!!ODT: 1866/
!!NB: Vocal melody and text only encoded.
!!NB: Only first strophe encoded.
**kern	**silbe
*clef G2	*
*k[b-e-a-]	*
*M4/4	*
=1	=1
1r	.
=2	=2
{4b-	{Berthe
8b-	un
8b-	soir
8b-	dans
8b-	le
8b-	mois
8b-	des
=3	=3
(4ee-	ro-
4cc)	|
4b-}	-ses,}
8r	.
{8cc	{Cueil-
=4	=4
4a-	-lit
8g	un
8g	bou-
4f	-quet
8.b-	par-
16a-	-fu-
=5	=5
4g}	-me/,}
4r	.
2r	.
=6	=6
{4b-	{Et,
8b-	re^-
8b-	-vant
8b-	de
8b-	son
8.cc	bien
16dd	ai-
=7	=7
4ee-}	-me/,}
{8dd	{S'en-
8dd	-dor-
2cc	-mit
=8	=8
8cc	les
8cc	fe-
8b-	-ne^-
8a-	-tres
(2g	clo-
ccq)	|
=9	=9
4cc}	-ses;}
4r	.
2r	.
=10	=10
{4b-	{Mais
8r	.
8b-	sou-
4b-	-dain
8r	.
8b-	les
=11	=11
4b-	fleurs
8.ee-	s'a-
16ee-	-ni-
4dd}	-ment,}
4r	.
=12	=12
{4b-	{Tin-
8a-	-rent
8g	con-
8a-	-seil
8a-	dans
8g	sa
8f	cham-
=13	=13
(4g	-bret-
4e-)	|
4f}	-te}
4r	.
=14	=14
{4g	{Pour
8f	se
8f	ven-
8g	-ger
8g	de
8.b-	la
16b-	pau-
=15	=15
4g	-vret-
4b-}	-te}
{4cc	{Qui
8.cc	sou-
16ee-	-ri-
=16	=16
2ee-	-ait,
4b-	tout
8b-	en
8b-	dor-
=17	=17
[1b-	-mant.
=18	=18
1b-]}	|}
*-	*-
